X:1
T:Title
%%score { ( 1 4 ) | ( 2 3 ) }
L:1/8
M:3/4
K:Bb
V:1 treble nm="Grand Piano"
V:4 treble 
V:2 bass 
V:3 bass 
V:1
 z2 z2[Q:1/4=100] [DFB][DFB] | [DFB]3 [B,DG] [DFB][EFc] | [DFB]2 [B,DF]2 [DB][FB] | %3
 [GB]3 [EG] [GB][^Fc] |[M:2/4] [Fd]4 |[M:1/4] [DFB][DFB] |[M:3/4] [DFB]3 [B,DG] [DFB][EFc] | %7
 [DFB]2 [B,DF]2 dd | d3 c Fc |[M:2/4] [DB]4 |[M:4/4][K:bass] (3B,,C,D,[K:treble] B2 B2 BG | %11
 Bc[DB][DF] DFBB | dc B2- [FB-]2 [GB][Gc] | [GB][EG] [DF]2 z E D2 | (3B,,C,D,[K:treble] B2 B2 BG | %15
 Bc[DB][DF] DFBB | z2 d6 |[M:3/4] z2 B4- | B2 z2 z2 |] %19
V:2
 z2 z2 B,,B,, | B,,3 B,, B,,B,, | B,,2 B,,2 [B,,F,][D,B,] | [E,B,]3 [E,B,] [E,B,][E,B,] | %4
[M:2/4] [B,,B,]4 |[M:1/4] B,,B,, |[M:3/4] B,,3 B,, B,,B,, | B,,2 B,,2[K:treble] [B,F][B,F] | %8
 [B,F]3[K:bass] [F,A,E] [F,A,E][F,A,E] |[M:2/4] [B,,B,]4 |[M:4/4] z2 [G,E]2 [G,E]2 [G,E][E,B,E] | %11
 [E,G,E][E,A,E][B,,B,]B, [F,B,][B,D][DF][DF] | z2 [B,,F,]2 [D,B,]2 [E,B,][E,B,] | %13
 [E,B,][E,B,] [B,,B,]2 [D,B,][F,A,] [B,,B,]2 | z2 [G,E]2 [G,E]2 [G,E][E,B,E] | %15
 [E,G,E][E,A,E][B,,B,]B, [F,B,][B,D][DF][DF] | z2[K:treble] [B,F]2 [G,B,]2[K:bass] [F,B,][F,B,D] | %17
[M:3/4] [F,A,E][F,A,E] z F, G,G, | F,2 z2 z2 |] %19
V:3
 x6 | x6 | x6 | x6 |[M:2/4] x4 |[M:1/4] x2 |[M:3/4] x6 | x4[K:treble] x2 | x3[K:bass] x3 | %9
[M:2/4] x4 |[M:4/4] z2 E,6 | z2 z B,,- B,,4- | B,, z z2 z4 | x8 | z2 E,6 | z2 z B,,- B,,4- | %16
 B,, z[K:treble] z2 z4[K:bass] |[M:3/4] z2 B,,4- | B,,2 z2 z2 |] %19
V:4
 x6 | x6 | x6 | x6 |[M:2/4] x4 |[M:1/4] x2 |[M:3/4] x6 | x6 | x6 |[M:2/4] x4 | %10
[M:4/4][K:bass] x2[K:treble] x6 | x8 | z2 D2 z4 | z4 F4 | x2[K:treble] x6 | x8 | dd z2 B2 FB | %17
[M:3/4] cc [B,D]D EE | D2 z2 z2 |] %19

